X:68
T:Jigs simple chords 324
M:3/4
L:1/8
K:Em
[d2G,2B,2D2] Be2B | [dG,B,D]e dB GE | [D6G,6B,6D6] | [c2A,2C2E2] Ad2B | [c2A,2C2E2] Ad2B |
[AA,^CEG]^G AB2c | [d6D,6F,6A,6C6] | [dG,B,D]e dB GE | [D6G,6B,6D6] |
[c2A,2C2E2] Ad2B | [c2A,2C2E2] Ad2c | [BG,B,D]d BG2B | [AA,CE]B AD EF |
[G6G,6B,6D6] | [g5C,5E,5G,5]f | [g2C,2E,2G,2] fe fe | [d2G,2B,2D2] ed2c |
[B5G,5B,5D5]B | [c2A,2C2E2] dc2B | [A5D,5F,5A,5C5]A | [d2G,2B,2D2] ed2B |
[G4G,4B,4D4=F4] Bd | [g5C,5E,5G,5]f | [g2C,2E,2G,2] fe fe | [d2G,2B,2D2] ed2c |
[B6G,6B,6D6] | [cA,CE]d cA2B | [c2D,2F,2A,2C2] de2f | [g2G,2B,2D2] dB2d |
[G6G,6B,6D6] |


